resources/haticons/SVG/playlist_play.svg

<!-- Generated by IcoMoon.io -->
<svg version="1.1" xmlns="http://www.w3.org/2000/svg" width="24" height="24" viewBox="0 0 24 24">
<title>playlist_play</title>
<path d="M14.016 14.016l4.969 3-4.969 3v-6zM3.984 14.016h8.016v1.969h-8.016v-1.969zM3.984 6h12v2.016h-12v-2.016zM3.984 9.984h12v2.016h-12v-2.016z"></path>
</svg>

<svg xmlns="http://www.w3.org/2000/svg" width="24" height="24"><path d="M14.016 14.016l4.969 3-4.969 3v-6zm-10.032 0H12v1.969H3.984v-1.969zm0-8.016h12v2.016h-12V6zm0 3.984h12V12h-12V9.984z"/></svg>
